X:37
T:Gathering Peascods
T:Erwtjes plukken
B:The English Dancing Master, John Playford (London, 1651)
O:Engeland
Z:Bert Van Vreckem <http://flanders.blackmill.net/music/>
M:C|
L:1/4
K:G
|:"G"d2 dd|B>c dd|"C"ed cB|"D"A3 B|AG GF|[1 "G"G4:|[2 "G"G3 G||
|:"D"FD FG|A2 BA|"G"G/A/B AG|"D"F3 F|"A"ED E>D|[1 "D"D3 G:|[2 "D"D3 d||
|:"G"BG GA/B/|"C"c3 c|"G"BG GA/B/|"D"A3 d|"G"BG GA/B/|"C"c>d e d/c/|"G"Bc/B/ "D"A>G|"G"G3 z:|
